icons/fill-new-other-cpu-chip.svg

<svg xmlns="http://www.w3.org/2000/svg" width="32px" height="32px" viewBox="0 0 32 32" version="1.1">
    <title>fill-new-other-cpu-chip</title>
    <g id="fill-new-other-cpu-chip" stroke-width="1" fill-rule="evenodd">
        <path d="M22,27 L22,29 C22,29.5522847 21.5522847,30 21,30 C20.4477153,30 20,29.5522847 20,29 L20,27 L22,27 Z M17,27 L17,29 C17,29.5522847 16.5522847,30 16,30 C15.4477153,30 15,29.5522847 15,29 L15,27 L17,27 Z M12,27 L12,29 C12,29.5522847 11.5522847,30 11,30 C10.4477153,30 10,29.5522847 10,29 L10,27 L12,27 Z M23,7 C24.1045695,7 25,7.8954305 25,9 L25,23 C25,24.1045695 24.1045695,25 23,25 L9,25 C7.8954305,25 7,24.1045695 7,23 L7,9 C7,7.8954305 7.8954305,7 9,7 L23,7 Z M5,20 L5,22 L3,22 C2.44771525,22 2,21.5522847 2,21 C2,20.4477153 2.44771525,20 3,20 L5,20 Z M29,20 C29.5522847,20 30,20.4477153 30,21 C30,21.5522847 29.5522847,22 29,22 L27,22 L27,20 L29,20 Z M5,15 L5,17 L3,17 C2.44771525,17 2,16.5522847 2,16 C2,15.4477153 2.44771525,15 3,15 L5,15 Z M29,15 C29.5522847,15 30,15.4477153 30,16 C30,16.5522847 29.5522847,17 29,17 L27,17 L27,15 L29,15 Z M5,10 L5,12 L3,12 C2.44771525,12 2,11.5522847 2,11 C2,10.4477153 2.44771525,10 3,10 L5,10 Z M29,10 C29.5522847,10 30,10.4477153 30,11 C30,11.5522847 29.5522847,12 29,12 L27,12 L27,10 L29,10 Z M11,2 C11.5522847,2 12,2.44771525 12,3 L12,5 L10,5 L10,3 C10,2.44771525 10.4477153,2 11,2 Z M16,2 C16.5522847,2 17,2.44771525 17,3 L17,5 L15,5 L15,3 C15,2.44771525 15.4477153,2 16,2 Z M21,2 C21.5522847,2 22,2.44771525 22,3 L22,5 L20,5 L20,3 C20,2.44771525 20.4477153,2 21,2 Z" id="&#24418;&#29366;" fill-rule="nonzero" />
    </g>
</svg>

<svg xmlns="http://www.w3.org/2000/svg" viewBox="0 0 32 32"><path fill="currentColor" d="M22 27v2a1 1 0 0 1-2 0v-2zm-5 0v2a1 1 0 0 1-2 0v-2zm-5 0v2a1 1 0 0 1-2 0v-2zM23 7a2 2 0 0 1 2 2v14a2 2 0 0 1-2 2H9a2 2 0 0 1-2-2V9a2 2 0 0 1 2-2zM5 20v2H3a1 1 0 0 1 0-2zm24 0a1 1 0 0 1 0 2h-2v-2zM5 15v2H3a1 1 0 0 1 0-2zm24 0a1 1 0 0 1 0 2h-2v-2zM5 10v2H3a1 1 0 0 1 0-2zm24 0a1 1 0 0 1 0 2h-2v-2zM11 2a1 1 0 0 1 1 1v2h-2V3a1 1 0 0 1 1-1m5 0a1 1 0 0 1 1 1v2h-2V3a1 1 0 0 1 1-1m5 0a1 1 0 0 1 1 1v2h-2V3a1 1 0 0 1 1-1"/></svg>
